svgs/nature/u1F436.layer6.svg

<svg xmlns="http://www.w3.org/2000/svg" viewBox="0 0 512 512" enable-background="new 0 0 512 512"><path fill="#AF773F" d="M190.818 405.257c0-1.976 1.602-3.578 3.578-3.578 1.976 0 3.578 1.6 3.578 3.576s-1.602 3.578-3.578 3.578c-1.976 0-3.578-1.6-3.578-3.578zm-4.69-35.87c1.976 0 3.578-1.603 3.578-3.58 0-1.975-1.602-3.577-3.578-3.577-1.976 0-3.578 1.602-3.578 3.578 0 1.976 1.602 3.578 3.578 3.578zm-21.89 25.51c1.977 0 3.58-1.603 3.58-3.58 0-1.975-1.603-3.577-3.58-3.577-1.975 0-3.577 1.602-3.577 3.578 0 1.976 1.604 3.578 3.58 3.578zm152.644-32.668c-1.976 0-3.578 1.6-3.578 3.576s1.602 3.578 3.578 3.578c1.976 0 3.578-1.602 3.578-3.578 0-1.976-1.602-3.578-3.578-3.578zm8.268 39.45c-1.976 0-3.578 1.6-3.578 3.576s1.602 3.578 3.578 3.578 3.578-1.602 3.578-3.578c0-1.976-1.602-3.578-3.578-3.578zm21.89-25.51c-1.977 0-3.58 1.6-3.58 3.576s1.603 3.578 3.58 3.578c1.975 0 3.577-1.602 3.577-3.578 0-1.976-1.6-3.578-3.578-3.578z"/></svg>

<?xml version="1.0" encoding="iso-8859-1"?>
<!-- Generator: Adobe Illustrator 18.1.0, SVG Export Plug-In . SVG Version: 6.00 Build 0)  -->
<!DOCTYPE svg PUBLIC "-//W3C//DTD SVG 1.1//EN" "http://www.w3.org/Graphics/SVG/1.1/DTD/svg11.dtd">
<svg version="1.1" xmlns="http://www.w3.org/2000/svg" xmlns:xlink="http://www.w3.org/1999/xlink" x="0px" y="0px"
	 viewBox="0 0 512 512" enable-background="new 0 0 512 512" xml:space="preserve">
<g id="Layer_7">
	<path fill="#AF773F" d="M190.818,405.257c0-1.976,1.602-3.578,3.578-3.578c1.976,0,3.578,1.602,3.578,3.578
		c0,1.976-1.602,3.578-3.578,3.578C192.42,408.836,190.818,407.234,190.818,405.257z M186.128,369.386
		c1.976,0,3.578-1.602,3.578-3.578c0-1.976-1.602-3.578-3.578-3.578c-1.976,0-3.578,1.602-3.578,3.578
		C182.55,367.784,184.152,369.386,186.128,369.386z M164.239,394.896c1.976,0,3.578-1.602,3.578-3.578
		c0-1.976-1.602-3.578-3.578-3.578c-1.976,0-3.578,1.602-3.578,3.578C160.661,393.294,162.263,394.896,164.239,394.896z
		 M316.882,362.229c-1.976,0-3.578,1.602-3.578,3.578c0,1.976,1.602,3.578,3.578,3.578c1.976,0,3.578-1.602,3.578-3.578
		C320.46,363.831,318.858,362.229,316.882,362.229z M325.15,401.679c-1.976,0-3.578,1.602-3.578,3.578
		c0,1.976,1.602,3.578,3.578,3.578s3.578-1.602,3.578-3.578C328.728,403.281,327.126,401.679,325.15,401.679z M347.039,376.169
		c-1.976,0-3.578,1.602-3.578,3.578c0,1.976,1.602,3.578,3.578,3.578c1.976,0,3.578-1.602,3.578-3.578
		C350.618,377.771,349.016,376.169,347.039,376.169z"/>
</g>
<g id="Layer_1">
</g>
</svg>
